!!!!SEGMENT: pl-gd--ee-1638--002-023_marenzio-luca--motettorum-pro-festis-totius-anni-in-assumpt-b-mariae-hodie-maria-virgo.krn
!!!cenid: 15xx:1026
!!!COM: Marenzio, Luca
!!!COM-rismID: pe30003955
!!!CDT: ~1553-1599/08/22
!!!CNT: Italian
!!!GTL: Motettorum pro festis totius anni
!!!OTL: In Assumpt. B. Mariae/Hodie Maria virgo
!!!OMV: 023
!!!PDT: 1588
!!!AGN:
!!!SMS-siglum: PL-GD
!!!SMS-shelfmark: Ee 1638
!!!SMS-shelfwork: 002-023 G
!!!SMS-variant:
!!!SMS-altvar:
!!!NIFC-rismSourceID: 1001202747
!!!NIFC-rismChildID: 990039238
!!!NIFC-islandoraID: pl-gd:57883
!!!URL-pdf-islandora: https://repozytorium.nifc.pl/islandora/object/pl-gd%3A57883/datastream/PDF/view
!!!URL-scan: https://polish.musicsources.pl/pl/lokalizacje/galeria/klocki-introligatorskie/655 @EN{Scan on Polish Music Sources Website} @PL{Skany w portalu Dziedzictwo Muzyki Polskiej w otwartym dostępie}
!!!ONB-nifc: UWAGA: Cantus: s. 627 (prawa), Altus: s. 475 (prawa), Tenor: s. 323 (prawa), Bassus: s. 171 (prawa)
!!!AIN: 1 alto 1 bass 1 soprn 1 tenor
!!!key:
**kern	**text	**kern	**text	**kern	**text	**kern	**text
*part4	*part4	*part3	*part3	*part2	*part2	*part1	*part1
*staff4	*staff4	*staff3	*staff3	*staff2	*staff2	*staff1	*staff1
*I"BASSUS	*	*I"TENORE	*	*I"ALTUS	*	*I"CANTUS	*
*I'B	*	*I'T	*	*I'A	*	*I'S	*
*Ibass	*	*Itenor	*	*Ialto	*	*Isoprn	*
*ICvox	*	*ICvox	*	*ICvox	*	*ICvox	*
*IG	*	*	*	*	*	*	*
*clefF3	*	*clefC3	*	*clefC2	*	*clefG2	*
*k[b-]	*	*k[b-]	*	*k[b-]	*	*k[b-]	*
*d:	*	*d:	*	*d:	*	*d:	*
*M2/2	*	*M2/2	*	*M2/2	*	*M2/2	*
*met(C|)	*	*met(C|)	*	*met(C|)	*	*met(C|)	*
=1-	=1-	=1-	=1-	=1-	=1-	=1-	=1-
*xywh-#171:4557,550,3607,840	*	*	*	*	*	*	*
*	*	*xywh-#323:4473,476,3457,845	*	*	*	*	*
*	*	*	*	*xywh-#475:4485,532,3487,854	*	*	*
*	*	*	*	*	*	*xywh-#627:4505,546,3500,797	*
!LO:TX:a:t=In Aſſumpt. B. Marię	!	!LO:TX:a:t=In Aſſumpt. B. Marię	!	!LO:TX:a:t=In Aſſumpt. B. Marię	!	!LO:TX:a:t=In Aſſumpt. B. Marię	!
1r	.	1.d	HO-	1r	.	1r	.
=2-	=2-	=2-	=2-	=2-	=2-	=2-	=2-
1r	.	.	.	1r	.	1.dd	HO-
.	.	2G/	-di-	.	.	.	.
=3-	=3-	=3-	=3-	=3-	=3-	=3-	=3-
1r	.	1G	-e	1r	.	.	.
.	.	.	.	.	.	2g/	-di-
=4-	=4-	=4-	=4-	=4-	=4-	=4-	=4-
1r	.	2r	.	1r	.	1g	-e
.	.	2g\	Ma-	.	.	.	.
=5-	=5-	=5-	=5-	=5-	=5-	=5-	=5-
1r	.	2f\	-ri-	1.a	HO-	2r	.
.	.	2d\	-a	.	.	2dd\	Ma-
=6-	=6-	=6-	=6-	=6-	=6-	=6-	=6-
1r	.	2.f\	vir-	.	.	2cc\	-ri-
.	.	.	.	2d/	-di-	2a/	-a
.	.	4g\	.	.	.	.	.
=7-	=7-	=7-	=7-	=7-	=7-	=7-	=7-
1r	.	4a\	.	1d	-e	2.ff\	vir-
.	.	4g\	.	.	.	.	.
.	.	2f\	.	.	.	.	.
.	.	.	.	.	.	4ee\	.
=8-	=8-	=8-	=8-	=8-	=8-	=8-	=8-
1r	.	1g	go	2r	.	4dd\	.
.	.	.	.	.	.	4cc\	.
.	.	.	.	2g\	Ma-	2b-/	-go
=9-	=9-	=9-	=9-	=9-	=9-	=9-	=9-
1.d	HO-	1r	.	2f\	-ri-	2a/	ho-
.	.	.	.	2d/	-a	1ff\	-di-
=10-	=10-	=10-	=10-	=10-	=10-	=10-	=10-
.	.	2r	.	2.b-\	vir-	.	.
!	!	!LO:SIC:v:t=custos G	!	!	!	!	!
2G\	-di-	1d\	ho-	.	.	2b-/	.
*	*	*xywh-#323:4504,1160,3550,699	*	*	*	*	*
!	!	!LO:LB:g=original	!	!	!	!	!
.	.	.	.	4a\	.	.	.
=11-	=11-	=11-	=11-	=11-	=11-	=11-	=11-
!	!	!	!	!	!	!LO:SIC:v:t=custos b-	!
1G	-e	.	.	4g\	.	1b-	-e
*	*	*	*	*	*	*xywh-#627:4527,1208,3486,690	*
!	!	!	!	!	!	!LO:LB:g=original	!
.	.	.	.	4f\	.	.	.
.	.	2G/	-di-	2e-X/	-go	.	.
=12-	=12-	=12-	=12-	=12-	=12-	=12-	=12-
2r	.	1G	e	2d/	ho-	2r	.
2G\	Ma-	.	.	1d/	-di-	2b-/	Ma-
=13-	=13-	=13-	=13-	=13-	=13-	=13-	=13-
2F/	-ri-	1r	.	.	.	2a/	-ri-
!	!	!	!	!LO:SIC:v:t=custos G	!	!	!
2D/	-a	.	.	2d/	.	2a/	-a
*	*	*	*	*xywh-#475:4470,1199,3479,705	*	*	*
!	!	!	!	!LO:LB:g=original	!	!	!
=14-	=14-	=14-	=14-	=14-	=14-	=14-	=14-
2.B-\	vir-	1r	.	1G	-e	2.dd\	vir-
4A\	.	.	.	.	.	4cc\	.
=15-	=15-	=15-	=15-	=15-	=15-	=15-	=15-
4G\	.	2r	.	1g	Ma-	2b-/	.
4F/	.	.	.	.	.	.	.
2E-X/	.	2g\	Ma-	.	.	2b-/	go
=16-	=16-	=16-	=16-	=16-	=16-	=16-	=16-
!LO:SIC:v:t=custos d	!	!	!	!	!	!	!
1D	go	2f\	-ri-	2a\	-ri-	2r	.
*xywh-#171:4588,1226,3442,699	*	*	*	*	*	*	*
!LO:LB:g=original	!	!	!	!	!	!	!
.	.	2d\	-a	2b-\	-a	1dd\	cae-
=17-	=17-	=17-	=17-	=17-	=17-	=17-	=17-
1d	cae-	2.f\	vir-	2.a\	vir-	.	.
.	.	.	.	.	.	1dd\	-los
.	.	4e\	.	4g\	.	.	.
=18-	=18-	=18-	=18-	=18-	=18-	=18-	=18-
1d	-los	4d\	.	4f\	.	.	.
.	.	4c/	.	4eny/	.	.	.
.	.	2B-/	.	4f\	.	4d/	a-
.	.	.	.	4g\	.	4e/	.
=19-	=19-	=19-	=19-	=19-	=19-	=19-	=19-
4D/	a-	2A/	go	4a\	.	4f/	.
4Eny/	.	.	.	4g\	.	4g/	.
4F/	.	1a\	cae-	2f\	.	4a/	.
4G\	.	.	.	.	.	4b-/	.
=20-	=20-	=20-	=20-	=20-	=20-	=20-	=20-
4A\	.	.	.	1e	go	4cc\	.
4B-\	.	.	.	.	.	4dd\	.
4c\	.	2a\	-los	.	.	4ee\	.
4A\	.	.	.	.	.	4ff\	.
=21-	=21-	=21-	=21-	=21-	=21-	=21-	=21-
2B-\	.	4d\	a-	1r	.	2gg\	.
.	.	4e\	.	.	.	.	.
1d\	ſcen-	4f\	.	.	.	2ff\	.
.	.	4g\	.	.	.	.	.
=22-	=22-	=22-	=22-	=22-	=22-	=22-	=22-
.	.	2a\	.	2r	.	1ee	ſcen-
2c#X\	.	2e\	ſcen-	1a\	ho-	.	.
=23-	=23-	=23-	=23-	=23-	=23-	=23-	=23-
1d	-dit	1f#X	-dit	.	.	1dd	-dit
.	.	.	.	2d/	-di-	.	.
=24-	=24-	=24-	=24-	=24-	=24-	=24-	=24-
1.G	ho-	2r	.	0d	-e	2r	.
!	!	!LO:SIC:v:t=custos f	!	!	!	!LO:SIC:v:t=custos a	!
.	.	1g\	Ho	.	.	1b-\	Ho-
*	*	*	*	*	*	*xywh-#627:4534,1725,3407,704	*
*	*	*xywh-#323:4543,1721,3434,683	*	*	*	*	*
!	!	!LO:LB:g=original	!	!	!	!LO:LB:g=original	!
=25-	=25-	=25-	=25-	=25-	=25-	=25-	=25-
.	.	.	.	.	.	.	.
2D/	-di-	2fny\	di-	.	.	2a/	-di-
=26-	=26-	=26-	=26-	=26-	=26-	=26-	=26-
1D	-e	2f\	-e	2r	.	0a	-e
.	.	2f\	Ma-	2d/	Ma-	.	.
=27-	=27-	=27-	=27-	=27-	=27-	=27-	=27-
2r	.	2e\	-ri-	2c/	-ri-	.	.
!	!	!	!	!LO:SIC:v:t=custos f	!	!	!
2F/	Ma-	2c/	-a	2A/	-a	.	.
*	*	*	*	*xywh-#475:4470,1755,3385,721	*	*	*
!	!	!	!	!LO:LB:g=original	!	!	!
=28-	=28-	=28-	=28-	=28-	=28-	=28-	=28-
2D/	-ri-	2.d\	vir-	2.f\	vir-	1r	.
2BB-/	-a	.	.	.	.	.	.
.	.	4e\	.	4e/	.	.	.
=29-	=29-	=29-	=29-	=29-	=29-	=29-	=29-
2.B-\	vir-	4f\	.	4d/	.	1.dd	Ho-
.	.	4e\	.	4c/	.	.	.
.	.	4d\	.	2.B-/	.	.	.
!LO:SIC:v:t=custos G	!	!	!	!	!	!	!
4A\	.	4c/	.	.	.	.	.
*xywh-#171:4572,1753,3473,738	*	*	*	*	*	*	*
!LO:LB:g=original	!	!	!	!	!	!	!
=30-	=30-	=30-	=30-	=30-	=30-	=30-	=30-
2.G\	.	2.B-/	.	.	.	.	.
.	.	.	.	4c/	.	.	.
.	.	.	.	1d/	.	2g/	-di-
4F/	.	4A/	.	.	.	.	.
=31-	=31-	=31-	=31-	=31-	=31-	=31-	=31-
1E-X	.	1G	.	.	.	2g/	-e
.	.	.	.	2c/	go	2gg\	Ma-
=32-	=32-	=32-	=32-	=32-	=32-	=32-	=32-
1D	go	2A/	go	2d/	cae-	2ff\	-ri-
.	.	1f\	cae-	1a\	-los	2dd\	-a
=33-	=33-	=33-	=33-	=33-	=33-	=33-	=33-
1d	coe-	.	.	.	.	2.ff\	vir-
.	.	1f\	los	1a\	a-	.	.
.	.	.	.	.	.	4ee\	.
=34-	=34-	=34-	=34-	=34-	=34-	=34-	=34-
1d	-los	.	.	.	.	4dd\	.
.	.	.	.	.	.	4cc\	.
.	.	4B-/	a-	4d/	.	2b-/	.
.	.	4c/	.	4e/	.	.	.
=35-	=35-	=35-	=35-	=35-	=35-	=35-	=35-
2r	.	4d\	.	4f\	.	2a/	-go
.	.	4e\	.	4g\	.	.	.
4D/	a-	4f\	.	4a\	.	1ff\	cae-
!	!	!LO:SIC:v:t=custos a	!	!	!	!	!
4Eny/	.	4g\	.	4g\	.	.	.
*	*	*xywh-#323:4527,2274,3404,706	*	*	*	*	*
!	!	!LO:LB:g=original	!	!	!	!	!
=36-	=36-	=36-	=36-	=36-	=36-	=36-	=36-
4F/	.	1a	.	1f	.	.	.
4G\	.	.	.	.	.	.	.
4A\	.	.	.	.	.	1cc\	-los
4B-\	.	.	.	.	.	.	.
=37-	=37-	=37-	=37-	=37-	=37-	=37-	=37-
2.cny\	.	1g	ſcen-	2.e/	ſcen-	.	.
.	.	.	.	.	.	4g/	a-
8B-\	.	.	.	8d/	.	4a/	.
8A\	.	.	.	8c/	.	.	.
=38-	=38-	=38-	=38-	=38-	=38-	=38-	=38-
4G\	.	1g	-dit	2.d/	.	4b-/	.
4A\	.	.	.	.	.	4cc\	.
4B-\	.	.	.	.	.	4dd\	.
!	!	!	!	!LO:SIC:v:t=custos B-	!	!	!
4c\	.	.	.	4c/	.	4ee\	.
*	*	*	*	*xywh-#475:4454,2272,3417,721	*	*	*
!	!	!	!	!LO:LB:g=original	!	!	!
=39-	=39-	=39-	=39-	=39-	=39-	=39-	=39-
0d	.	2r	.	2.B-/	.	2ff\	.
.	.	2d\	a-	.	.	2.f/	ſcen-
.	.	.	.	4c/	.	.	.
=40-	=40-	=40-	=40-	=40-	=40-	=40-	=40-
.	.	1.f	-ſcen-	4d/	.	.	.
!	!	!	!	!	!	!LO:SIC:v:t=custos a	!
.	.	.	.	4e/	.	4g/	.
*	*	*	*	*	*	*xywh-#627:4513,2272,3443,726	*
!	!	!	!	!	!	!LO:LB:g=original	!
.	.	.	.	4f\	.	4a/	.
.	.	.	.	4g\	.	4b-/	.
=41-	=41-	=41-	=41-	=41-	=41-	=41-	=41-
0c	ſcen-	.	.	2a\	.	0cc	.
.	.	4e\	.	4g\	.	.	.
.	.	4d\	.	4f\	.	.	.
=42-	=42-	=42-	=42-	=42-	=42-	=42-	=42-
.	.	1e	.	1g	.	.	.
=43-	=43-	=43-	=43-	=43-	=43-	=43-	=43-
*M3/1	*	*M3/1	*	*M3/1	*	*M3/1	*
*met(3)	*	*met(3)	*	*met(3)	*	*met(3)	*
!LO:SIC:v:t=custos F	!	!	!	!	!	!	!
0.F	-dit	0.f	dit	0a	-dit	0cc	dit
*xywh-#171:4580,2287,3513,738	*	*	*	*	*	*	*
!LO:LB:g=original	!	!	!	!	!	!	!
.	.	.	.	1f	gau-	1a	gau-
=44-	=44-	=44-	=44-	=44-	=44-	=44-	=44-
1r	.	1r	.	1.b-	-de-	1.dd	-de-
1r	.	1r	.	.	.	.	.
.	.	.	.	2g\	.	2b-/	.
1F	gau-	1f	gau-	1a	.	1cc	.
=45-	=45-	=45-	=45-	=45-	=45-	=45-	=45-
1.B-	-de-	1.f	-de-	0b-	-te	0dd	-te
2G\	.	2g\	.	.	.	.	.
1A	.	1e	.	1a	gau-	1cc	gau-
=46-	=46-	=46-	=46-	=46-	=46-	=46-	=46-
0D	-te	0d	-te	1.a	-de-	1.ff	-de-
.	.	.	.	2b-\	.	2dd\	.
*	*	*	*ij	*	*	*	*
1C	gau-	1g	gau-	1cc	.	1ee	.
=47-	=47-	=47-	=47-	=47-	=47-	=47-	=47-
1.F	-de-	1.c	-de-	1a	-te	1ff	-te
.	.	.	.	1r	.	1r	.
2D/	.	2B-/	.	.	.	.	.
!	!	!LO:SIC:v:t=custos d	!	!	!	!	!
1C	.	1A	.	1e	gau-	1cc	gau-
*	*	*xywh-#323:4512,2812,3365,683	*	*	*	*	*
!	!	!LO:LB:g=original	!	!	!	!	!
=48-	=48-	=48-	=48-	=48-	=48-	=48-	=48-
0BB-	te	0d	-te	1.f	-de-	1.dd	-de-
*	*	*	*Xij	*	*	*	*
.	.	.	.	2g\	.	2b-/	.
!	!	!	!	!LO:SIC:v:t=custos g	!	!	!
1r	.	1r	.	1f#X	.	1a	.
*	*	*	*	*xywh-#475:4454,2860,3283,713	*	*	*
!	!	!	!	!LO:LB:g=original	!	!	!
=49-	=49-	=49-	=49-	=49-	=49-	=49-	=49-
*M2/2	*	*M2/2	*	*M2/2	*	*M2/2	*
*met(C|)	*	*met(C|)	*	*met(C|)	*	*met(C|)	*
2r	.	2r	.	1g	te	1g	-te
1G\	qui-	1d\	qui-	.	.	.	.
=50-	=50-	=50-	=50-	=50-	=50-	=50-	=50-
!	!	!	!	!LO:N:acc=#	!	!	!
.	.	.	.	1bn	qui-	1dd	qui-
2G\	-a	2d\	-a	.	.	.	.
=51-	=51-	=51-	=51-	=51-	=51-	=51-	=51-
!	!	!	!	!	!	!LO:SIC:v:t=custos dd	!
1G	cum	1g	cum	2b-\	-a	2dd\	-a
*	*	*	*	*	*	*xywh-#627:4498,2825,3457,697	*
!	!	!	!	!	!	!LO:LB:g=original	!
.	.	.	.	2b-\	cum	2dd\	cum
=52-	=52-	=52-	=52-	=52-	=52-	=52-	=52-
0C	Chri-	0g	Chri-	0cc	Chri-	0ee-X	Chri-
=53-	=53-	=53-	=53-	=53-	=53-	=53-	=53-
.	.	.	.	.	.	.	.
=54-	=54-	=54-	=54-	=54-	=54-	=54-	=54-
1G	ſto	1g	ſto	1b-	ſto	1dd	ſto
=55-	=55-	=55-	=55-	=55-	=55-	=55-	=55-
1r	.	1d	qui-	2.a\	re-	2r	.
.	.	.	.	.	.	2.ff\	re-
.	.	.	.	4a\	-gnat	.	.
=56-	=56-	=56-	=56-	=56-	=56-	=56-	=56-
1r	.	2d\	-a	2a\	in	.	.
.	.	.	.	.	.	4ff\	-gnat
.	.	2d\	cu[m]	2fny\	ae-	2ff\	in
=57-	=57-	=57-	=57-	=57-	=57-	=57-	=57-
1r	.	0e-X	Chri-	4g\	-ter-	2b-/	ae-
.	.	.	.	4a\	.	.	.
.	.	.	.	4b-\	.	2.g/	-ter-
.	.	.	.	4cc\	.	.	.
=58-	=58-	=58-	=58-	=58-	=58-	=58-	=58-
1r	.	.	.	4b-\	.	.	.
.	.	.	.	4a\	.	4a/	.
.	.	.	.	2g\	.	4b-/	.
.	.	.	.	.	.	4cc\	.
=59-	=59-	=59-	=59-	=59-	=59-	=59-	=59-
1D	qui-	2d\	ſto	4f\	num	0dd	.
!	!	!	!	!LO:SIC:v:t=custos a	!	!	!
.	.	.	.	4g\	.	.	.
*	*	*	*	*xywh-#475:4470,3362,3448,768	*	*	*
!	!	!	!	!LO:LB:g=original	!	!	!
.	.	2.f\	re-	4a\	.	.	.
.	.	.	.	4b-\	.	.	.
=60-	=60-	=60-	=60-	=60-	=60-	=60-	=60-
!LO:SIC:v:t=custos D	!	!	!	!	!	!	!
2D/	-a	.	.	1a	.	.	.
*xywh-#171:4557,2837,3473,723	*	*	*	*	*	*	*
!LO:LB:g=original	!	!	!	!	!	!	!
.	.	4f\	-gnat	.	.	.	.
2D/	cum	2f\	in	.	.	.	.
=61-	=61-	=61-	=61-	=61-	=61-	=61-	=61-
0E-X	Chri-	2B-/	ae-	1r	.	2.g/	-num
.	.	2.G/	-ter-	.	.	.	.
.	.	.	.	.	.	4a/	.
=62-	=62-	=62-	=62-	=62-	=62-	=62-	=62-
.	.	.	.	1r	.	2.b-/	.
!	!	!LO:SIC:v:t=custos a	!	!	!	!	!
.	.	4A/	.	.	.	.	.
*	*	*xywh-#323:4543,3373,3411,660	*	*	*	*	*
!	!	!LO:LB:g=original	!	!	!	!	!
.	.	4B-/	.	.	.	.	.
.	.	4c/	.	.	.	8a/	.
.	.	.	.	.	.	8g/	.
=63-	=63-	=63-	=63-	=63-	=63-	=63-	=63-
2D/	ſto	2.d\	.	1a	qui-	2f/	.
2.d\	re-	.	.	.	.	2.ff\	re-
.	.	4eny\	.	.	.	.	.
=64-	=64-	=64-	=64-	=64-	=64-	=64-	=64-
.	.	2.f\	.	2a\	-a	.	.
4d\	-gnat	.	.	.	.	4ff\	-gnat
2d\	in	.	.	2a\	cum	2ff\	in
.	.	4e\	.	.	.	.	.
=65-	=65-	=65-	=65-	=65-	=65-	=65-	=65-
!	!	!	!	!	!	!LO:SIC:v:t=custos dd	!
2B-\	ae-	4f\	.	0b-	Chri-	1dd	ae-
*	*	*	*	*	*	*xywh-#627:4484,3371,3508,697	*
!	!	!	!	!	!	!LO:LB:g=original	!
.	.	4d\	.	.	.	.	.
2.G\	-ter-	2.g\	.	.	.	.	.
=66-	=66-	=66-	=66-	=66-	=66-	=66-	=66-
.	.	.	.	.	.	1dd	-ter-
4A\	.	8f\	.	.	.	.	.
.	.	8e\	.	.	.	.	.
4B-\	.	4d\	.	.	.	.	.
4c\	.	4e\	.	.	.	.	.
=67-	=67-	=67-	=67-	=67-	=67-	=67-	=67-
0d	.	2f\	.	2a\	ſto	2dd\	-nu[m]
.	.	2d\	num	2.f\	re-	2a/	qui-
=68-	=68-	=68-	=68-	=68-	=68-	=68-	=68-
.	.	1r	.	.	.	2a/	-a
.	.	.	.	4f\	-gnat	.	.
.	.	.	.	2f\	in	2a/	cum
=69-	=69-	=69-	=69-	=69-	=69-	=69-	=69-
1G	num	1r	.	2B-/	ae-	1b-	Chri-
.	.	.	.	2.d/	-ter-	.	.
=70-	=70-	=70-	=70-	=70-	=70-	=70-	=70-
1r	.	1d	qui-	.	.	2a/	ſto
.	.	.	.	4e/	.	.	.
.	.	.	.	4f\	.	2.ff\	re-
.	.	.	.	4g\	.	.	.
=71-	=71-	=71-	=71-	=71-	=71-	=71-	=71-
1r	.	2d\	-a	2a\	.	.	.
.	.	.	.	.	.	4ff\	-gnat
!	!	!	!	!LO:SIC:v:t=custos a	!	!	!
.	.	2d\	cum	2a\	num	2dd\	in
*	*	*	*	*xywh-#475:4509,3879,3393,1457	*	*	*
!	!	!	!	!LO:LB:g=original	!	!	!
=72-	=72-	=72-	=72-	=72-	=72-	=72-	=72-
!	!	!LO:SIC:v:t=custos e	!	!	!	!	!
*	*ij	*	*	*	*	*	*
1A	qui-	1f	Chri-	2r	.	2cc#X\	ae-
*	*	*xywh-#323:4535,3911,3511,706	*	*	*	*	*
!	!	!LO:LB:g=original	!	!	!	!	!
.	.	.	.	2.a\	re-	2.dd\	-ter-
=73-	=73-	=73-	=73-	=73-	=73-	=73-	=73-
2A\	-a	1e	-ſto	.	.	.	.
.	.	.	.	4a\	-gnat	8ccny\	.
.	.	.	.	.	.	8b#X\	.
2A\	cum	.	.	2a\	in	2cc#X\	.
=74-	=74-	=74-	=74-	=74-	=74-	=74-	=74-
0B-	Chri-	1r	.	2f\	ae-	0dd	-num
.	.	.	.	2.d/	-ter-	.	.
=75-	=75-	=75-	=75-	=75-	=75-	=75-	=75-
.	.	1r	.	.	.	.	.
.	.	.	.	4e/	.	.	.
.	.	.	.	4f\	.	.	.
.	.	.	.	4g\	.	.	.
=76-	=76-	=76-	=76-	=76-	=76-	=76-	=76-
!LO:SIC:v:t=custos d	!	!	!	!	!	!	!
2A\	ſto	2r	.	1a	.	2r	.
*xywh-#171:4572,3364,3426,2129	*	*	*	*	*	*	*
!LO:LB:g=original	!	!	!	!	!	!	!
2.d\	re-	2.f\	re-	.	.	2a/	qui-
=77-	=77-	=77-	=77-	=77-	=77-	=77-	=77-
.	.	.	.	0d	num	2a/	-a
4d\	-gnat	4f\	-gnat	.	.	.	.
2d\	in	2f\	in	.	.	2a/	cum
=78-	=78-	=78-	=78-	=78-	=78-	=78-	=78-
1G	ae-	2B-/	ae-	.	.	1b-y	Chri-
.	.	2.d\	-ter-	.	.	.	.
=79-	=79-	=79-	=79-	=79-	=79-	=79-	=79-
!	!	!	!	!	!	!LO:SIC:v:t=custos dd	!
2.D/	-ter-	.	.	2r	.	2a/	ſto
*	*	*	*	*	*	*xywh-#627:4520,3903,3407,682	*
!	!	!	!	!	!	!LO:LB:g=original	!
.	.	4e\	.	.	.	.	.
.	.	4f\	.	2A/	qui-	2.dd\	re-
4Eny/	.	4g\	.	.	.	.	.
=80-	=80-	=80-	=80-	=80-	=80-	=80-	=80-
4F/	.	1a	.	2A/	-a	.	.
4G\	.	.	.	.	.	4dd\	-gnat
2A\	.	.	.	2A/	cu[m]	2ccny\	in
=81-	=81-	=81-	=81-	=81-	=81-	=81-	=81-
0G	num	0d	nu[m]	0B-	Chri-	2b-/	e-
*	*Xij	*	*	*	*	*	*
.	.	.	.	.	.	4g/	-ter-
.	.	.	.	.	.	4a/	.
=82-	=82-	=82-	=82-	=82-	=82-	=82-	=82-
.	.	.	.	.	.	4b-/	.
.	.	.	.	.	.	4cc\	.
.	.	.	.	.	.	4dd\	.
.	.	.	.	.	.	4b-/	.
=83-	=83-	=83-	=83-	=83-	=83-	=83-	=83-
2r	.	1e	qui-	1A	ſto	4cc\	.
.	.	.	.	.	.	4dd\	.
2.c\	re-	.	.	.	.	4eeny\	.
.	.	.	.	.	.	4ff\	.
=84-	=84-	=84-	=84-	=84-	=84-	=84-	=84-
.	.	2e\	-a	1r	.	2gg\	.
4c\	-gnat	.	.	.	.	.	.
2c\	in	2e\	cum	.	.	1cc\	-num
=85-	=85-	=85-	=85-	=85-	=85-	=85-	=85-
2F/	ae-	0f	Chri-	2.a\	re-	.	.
2.D/	-ter-	.	.	.	.	2.ff\	in
.	.	.	.	4a\	-gnat	.	.
=86-	=86-	=86-	=86-	=86-	=86-	=86-	=86-
.	.	.	.	1a	in	.	.
4E/	.	.	.	.	.	4ee\	.
4F/	.	.	.	.	.	2dd\	.
4G\	.	.	.	.	.	.	.
=87-	=87-	=87-	=87-	=87-	=87-	=87-	=87-
00A	.	2e\	ſto	1a	ae-	2cc\	ae-
.	.	2.a\	re-	.	.	2.ff\	-ter-
=88-	=88-	=88-	=88-	=88-	=88-	=88-	=88-
.	.	.	.	2.cc\	-ter-	.	.
!	!	!LO:SIC:v:t=custos a	!	!	!	!LO:SIC:v:t=custos ee	!
.	.	4a\	-gnat	.	.	4ee\	.
*	*	*	*	*	*	*xywh-#627:4520,4486,3465,826	*
*	*	*xywh-#323:4535,4457,3496,906	*	*	*	*	*
!	!	!LO:LB:g=original	!	!	!	!LO:LB:g=original	!
.	.	2a\	in	.	.	2.ee\	.
.	.	.	.	4b-\	.	.	.
=89-	=89-	=89-	=89-	=89-	=89-	=89-	=89-
.	.	1f	ae-	0a	.	.	.
.	.	.	.	.	.	4dd\	.
.	.	.	.	.	.	1dd\	.
=90-	=90-	=90-	=90-	=90-	=90-	=90-	=90-
.	.	1e	-ter-	.	.	.	.
.	.	.	.	.	.	2cc#X\	.
=91-	=91-	=91-	=91-	=91-	=91-	=91-	=91-
00D	num.	00d	-num.	00f#X	num.	00dd	-num.
=92-	=92-	=92-	=92-	=92-	=92-	=92-	=92-
.	.	.	.	.	.	.	.
=93-	=93-	=93-	=93-	=93-	=93-	=93-	=93-
.	.	.	.	.	.	.	.
=94-	=94-	=94-	=94-	=94-	=94-	=94-	=94-
.	.	.	.	.	.	.	.
=-	=-	=-	=-	=-	=-	=-	=-
*-	*-	*-	*-	*-	*-	*-	*-
!!!system-decoration: [(s1,s2,s3,s4)]
!!!ENC: Marta Opryszak
!!!END: 2022-07-02
!!!ENC: Julita Ruszuk
!!!END: 2022-07-08
!!!YEC: Copyright 2022 Narodowy Instytut Fryderyka Chopina (https://polishscores.org)
!!!YEM: License CC-BY-4.0 (https://creativecommons.org/licenses/by/4.0)
!!!IIIF: https://repozytorium.nifc.pl/islandora/object/pl-gd%3A57883/datastream/IIIF/view
!!!ENC-iiif: Lidia Bialucha
!!!END-iiif: 2022-09-11
